site/_assets/img/06.svg

<svg viewBox="0 0 500 500" xmlns="http://www.w3.org/2000/svg"><path d="m214 25h-144.8999v450h144.8999zm54 301.5h18c90.9 0 144.9-51.3 144.9-151.2s-52.2-150.3-144-150.3h-18.9z" fill="#fafafa"/></svg>

<svg viewBox="0 0 500 500" xmlns="http://www.w3.org/2000/svg">
<path d="M214 25H69.1001V475H214V25ZM268 326.5H286C376.9 326.5 430.9 275.2 430.9 175.3C430.9 75.4 378.7 25 286.9 25H268V326.5Z" fill="#FFFFFF"/>
</svg>
